X:0534
T:The Rakes of Rochester.
M:2/4
L:1/16
Q:1/4=116
I: :: ::
Z:Jack Campin * www.campin.me.uk * 2009
K:G
dc| B2G4 D2| E4 D2G2| F2``G2   c2``B2 |AGFE D2
dc| B2G4 D2| E4 D2G2| F2``G2   BA``GF |G4   G2::
A2|TB4 A2d2|TB4 A2d2| B2``AG   F2``G2 |AGFE D2
A2|TB4 A2d2|TB4 A2d2|(cB)(AG) (BA)(GF)|G4   G2:|
<end>
<start>
